tetrification/src/assets/images/landingpage.svg

<svg width="1512" height="756" fill="none" xmlns="http://www.w3.org/2000/svg"><path d="M1 744.752V614.106l9.386-9.449h130.771l9.386 9.449v130.646l-9.386 9.448H10.387L1 744.752Zm151.162.18V614.286l9.386-9.448h130.771l9.386 9.448v130.646l-9.386 9.448H161.548l-9.386-9.448Zm151.162 0V614.286l9.386-9.448h130.771l9.386 9.448v130.646l-9.386 9.448H312.71l-9.386-9.448ZM1 593.77V463.124l9.386-9.448h130.771l9.386 9.448V593.77l-9.386 9.448H10.387L1 593.77Zm896.094 9.098H766.448L757 593.482V462.711l9.448-9.386h130.646l9.449 9.386v130.771l-9.449 9.386Zm.18-151.162H766.628l-9.448-9.386V311.55l9.448-9.387h130.646l9.448 9.387v130.77l-9.448 9.386Zm0-151.162H766.628l-9.448-9.386V160.387l9.448-9.386h130.646l9.448 9.386v130.771l-9.448 9.386Zm150.816 303H917.448L908 594.158V463.387l9.448-9.386h130.642l9.45 9.386v130.771l-9.45 9.386Zm302-150.678h-130.64l-9.45-9.386V312.709l9.45-9.386h130.64l9.45 9.386V443.48l-9.45 9.386Zm.18-151.162h-130.64l-9.45-9.386v-130.77l9.45-9.386h130.64l9.45 9.386v130.77l-9.45 9.386Zm150.82-151.162h-130.64l-9.45-9.386V10.386L1370.45 1h130.64l9.45 9.386v130.77l-9.45 9.386Zm0 151h-130.64l-9.45-9.386V161.385l9.45-9.386h130.64l9.45 9.386v130.771l-9.45 9.386Z" fill="#FFA360" stroke="#DF654D" stroke-width="2"/><path d="M454.486 744.752V614.106l9.386-9.449h130.771l9.386 9.449v130.646l-9.386 9.448H463.872l-9.386-9.448Zm151.162.18V614.286l9.386-9.448h130.771l9.386 9.448v130.646l-9.386 9.448H615.034l-9.386-9.448Zm151.163 0V614.286l9.386-9.448h130.77l9.386 9.448v130.646l-9.386 9.448h-130.77l-9.386-9.448ZM605.648 593.77V463.124l9.386-9.448h130.771l9.386 9.448V593.77l-9.386 9.448H615.034l-9.386-9.448Z" fill="#FBD73A" stroke="#C7961A" stroke-width="2"/><path d="M907.972 744.752V614.106l9.386-9.449h130.772l9.38 9.449v130.646l-9.38 9.448H917.358l-9.386-9.448Zm151.158.18V614.286l9.39-9.448h130.77l9.39 9.448v130.646l-9.39 9.448h-130.77l-9.39-9.448ZM1210.3 593.77V463.124l9.38-9.448h130.77l9.39 9.448V593.77l-9.39 9.448h-130.77l-9.38-9.448Zm-151.17 0V463.124l9.39-9.448h130.77l9.39 9.448V593.77l-9.39 9.448h-130.77l-9.39-9.448ZM757 141.094V10.448L766.386 1h130.771l9.386 9.448v130.646l-9.386 9.449H766.386L757 141.094Zm151 0V10.448L917.386 1h130.774l9.38 9.448v130.646l-9.38 9.449H917.386L908 141.094Zm302.32 0V10.448L1219.71 1h130.77l9.39 9.448v130.646l-9.39 9.449h-130.77l-9.39-9.449Zm-151.16 0V10.448L1068.55 1h130.77l9.38 9.448v130.646l-9.38 9.449h-130.77l-9.39-9.449Z" fill="#AF87F6" stroke="#532A9D" stroke-width="2"/><path d="M1210.29 744.751V614.105l9.39-9.448h130.77l9.39 9.448v130.646l-9.39 9.448h-130.77l-9.39-9.448Zm151.17.18V614.285l9.38-9.448h130.77l9.39 9.448v130.646l-9.39 9.448h-130.77l-9.38-9.448Zm0-302.323V311.961l9.38-9.448h130.77l9.39 9.448v130.647l-9.39 9.448h-130.77l-9.38-9.448Zm0 151.161V463.123l9.38-9.448h130.77l9.39 9.448v130.646l-9.39 9.449h-130.77l-9.38-9.449ZM908 443.237V312.591l9.386-9.448h130.774l9.38 9.448v130.646l-9.38 9.449H917.386L908 443.237Zm151.16.181V312.771l9.39-9.448h130.77l9.38 9.448v130.647l-9.38 9.448h-130.77l-9.39-9.448ZM908 292.094V161.448l9.386-9.448h130.774l9.38 9.448v130.646l-9.38 9.448H917.386L908 292.094Zm151.16.162V161.61l9.39-9.449h130.77l9.38 9.449v130.646l-9.38 9.448h-130.77l-9.39-9.448Z" fill="#FBD73A" stroke="#C7961A" stroke-width="2"/></svg>

<svg width="1512" height="756" viewBox="0 0 1512 756" fill="none" xmlns="http://www.w3.org/2000/svg">
<path d="M1 744.752V614.106L10.3861 604.657H141.157L150.543 614.106V744.752L141.157 754.2H10.3861L1 744.752Z" fill="#FFA360" stroke="#DF654D" stroke-width="2"/>
<path d="M152.162 744.932V614.286L161.548 604.838H292.319L301.705 614.286V744.932L292.319 754.38H161.548L152.162 744.932Z" fill="#FFA360" stroke="#DF654D" stroke-width="2"/>
<path d="M303.324 744.932V614.286L312.71 604.838H443.481L452.867 614.286V744.932L443.481 754.38H312.71L303.324 744.932Z" fill="#FFA360" stroke="#DF654D" stroke-width="2"/>
<path d="M1 593.77V463.124L10.3861 453.676H141.157L150.543 463.124V593.77L141.157 603.218H10.3861L1 593.77Z" fill="#FFA360" stroke="#DF654D" stroke-width="2"/>
<path d="M897.094 602.868L766.448 602.868L757 593.482L757 462.711L766.448 453.325L897.094 453.325L906.543 462.711L906.543 593.482L897.094 602.868Z" fill="#FFA360" stroke="#DF654D" stroke-width="2"/>
<path d="M897.274 451.706L766.628 451.706L757.18 442.32L757.18 311.55L766.628 302.163L897.274 302.163L906.722 311.55L906.722 442.32L897.274 451.706Z" fill="#FFA360" stroke="#DF654D" stroke-width="2"/>
<path d="M897.274 300.544L766.628 300.544L757.18 291.158L757.18 160.387L766.628 151.001L897.274 151.001L906.722 160.387L906.722 291.158L897.274 300.544Z" fill="#FFA360" stroke="#DF654D" stroke-width="2"/>
<path d="M1048.09 603.544L917.448 603.544L908 594.158L908 463.387L917.448 454.001L1048.09 454.001L1057.54 463.387L1057.54 594.158L1048.09 603.544Z" fill="#FFA360" stroke="#DF654D" stroke-width="2"/>
<path d="M1350.09 452.866L1219.45 452.866L1210 443.48L1210 312.709L1219.45 303.323L1350.09 303.323L1359.54 312.709L1359.54 443.48L1350.09 452.866Z" fill="#FFA360" stroke="#DF654D" stroke-width="2"/>
<path d="M1350.27 301.704L1219.63 301.704L1210.18 292.318L1210.18 161.548L1219.63 152.162L1350.27 152.162L1359.72 161.548L1359.72 292.318L1350.27 301.704Z" fill="#FFA360" stroke="#DF654D" stroke-width="2"/>
<path d="M1501.09 150.542L1370.45 150.542L1361 141.156L1361 10.386L1370.45 0.999908L1501.09 0.999902L1510.54 10.386L1510.54 141.156L1501.09 150.542Z" fill="#FFA360" stroke="#DF654D" stroke-width="2"/>
<path d="M1501.09 301.542L1370.45 301.542L1361 292.156L1361 161.385L1370.45 151.999L1501.09 151.999L1510.54 161.385L1510.54 292.156L1501.09 301.542Z" fill="#FFA360" stroke="#DF654D" stroke-width="2"/>
<path d="M454.486 744.752V614.106L463.872 604.657H594.643L604.029 614.106V744.752L594.643 754.2H463.872L454.486 744.752Z" fill="#FBD73A" stroke="#C7961A" stroke-width="2"/>
<path d="M605.648 744.932V614.286L615.034 604.838H745.805L755.191 614.286V744.932L745.805 754.38H615.034L605.648 744.932Z" fill="#FBD73A" stroke="#C7961A" stroke-width="2"/>
<path d="M756.811 744.932V614.286L766.197 604.838H896.967L906.353 614.286V744.932L896.967 754.38H766.197L756.811 744.932Z" fill="#FBD73A" stroke="#C7961A" stroke-width="2"/>
<path d="M605.648 593.77V463.124L615.034 453.676H745.805L755.191 463.124V593.77L745.805 603.218H615.034L605.648 593.77Z" fill="#FBD73A" stroke="#C7961A" stroke-width="2"/>
<path d="M907.972 744.752V614.106L917.358 604.657H1048.13L1057.51 614.106V744.752L1048.13 754.2H917.358L907.972 744.752Z" fill="#AF87F6" stroke="#532A9D" stroke-width="2"/>
<path d="M1059.13 744.932V614.286L1068.52 604.838H1199.29L1208.68 614.286V744.932L1199.29 754.38H1068.52L1059.13 744.932Z" fill="#AF87F6" stroke="#532A9D" stroke-width="2"/>
<path d="M1210.3 593.77V463.124L1219.68 453.676H1350.45L1359.84 463.124V593.77L1350.45 603.218H1219.68L1210.3 593.77Z" fill="#AF87F6" stroke="#532A9D" stroke-width="2"/>
<path d="M1059.13 593.77V463.124L1068.52 453.676H1199.29L1208.68 463.124V593.77L1199.29 603.218H1068.52L1059.13 593.77Z" fill="#AF87F6" stroke="#532A9D" stroke-width="2"/>
<path d="M757 141.094V10.4482L766.386 1H897.157L906.543 10.4482V141.094L897.157 150.543H766.386L757 141.094Z" fill="#AF87F6" stroke="#532A9D" stroke-width="2"/>
<path d="M908 141.094V10.4482L917.386 1H1048.16L1057.54 10.4482V141.094L1048.16 150.543H917.386L908 141.094Z" fill="#AF87F6" stroke="#532A9D" stroke-width="2"/>
<path d="M1210.32 141.094V10.4482L1219.71 1H1350.48L1359.87 10.4482V141.094L1350.48 150.543H1219.71L1210.32 141.094Z" fill="#AF87F6" stroke="#532A9D" stroke-width="2"/>
<path d="M1059.16 141.094V10.4482L1068.55 1H1199.32L1208.7 10.4482V141.094L1199.32 150.543H1068.55L1059.16 141.094Z" fill="#AF87F6" stroke="#532A9D" stroke-width="2"/>
<path d="M1210.29 744.751V614.105L1219.68 604.657H1350.45L1359.84 614.105V744.751L1350.45 754.199H1219.68L1210.29 744.751Z" fill="#FBD73A" stroke="#C7961A" stroke-width="2"/>
<path d="M1361.46 744.931V614.285L1370.84 604.837H1501.61L1511 614.285V744.931L1501.61 754.379H1370.84L1361.46 744.931Z" fill="#FBD73A" stroke="#C7961A" stroke-width="2"/>
<path d="M1361.46 442.608V311.961L1370.84 302.513H1501.61L1511 311.961V442.608L1501.61 452.056H1370.84L1361.46 442.608Z" fill="#FBD73A" stroke="#C7961A" stroke-width="2"/>
<path d="M1361.46 593.769V463.123L1370.84 453.675H1501.61L1511 463.123V593.769L1501.61 603.218H1370.84L1361.46 593.769Z" fill="#FBD73A" stroke="#C7961A" stroke-width="2"/>
<path d="M908 443.237V312.591L917.386 303.143H1048.16L1057.54 312.591V443.237L1048.16 452.686H917.386L908 443.237Z" fill="#FBD73A" stroke="#C7961A" stroke-width="2"/>
<path d="M1059.16 443.418V312.771L1068.55 303.323H1199.32L1208.7 312.771V443.418L1199.32 452.866H1068.55L1059.16 443.418Z" fill="#FBD73A" stroke="#C7961A" stroke-width="2"/>
<path d="M908 292.094V161.448L917.386 152H1048.16L1057.54 161.448V292.094L1048.16 301.542H917.386L908 292.094Z" fill="#FBD73A" stroke="#C7961A" stroke-width="2"/>
<path d="M1059.16 292.256V161.61L1068.55 152.161H1199.32L1208.7 161.61V292.256L1199.32 301.704H1068.55L1059.16 292.256Z" fill="#FBD73A" stroke="#C7961A" stroke-width="2"/>
</svg>
